X: 945
T: Gülşen-i Vefâ Sazsemâîsi
C: Ferâizcizâde İbrahim Efendi
O: Turkey
F: http://compmusic.upf.edu/node/140
N: gulsen-ivefa--sazsemaisi--aksaksemai----feraizcizade_ibrahim_efendi
N: makam= gulsen-ivefa
N: form= sazsemaisi
N: usul= aksaksemai = 10/8
M: 10/8
L: 1/16
K: C _7/8B ^f ^c 
Q: 1/4=132
%%MIDI tuningsystem comma53
a4 _1/4b2a4=c'4b4a2  | g4 a_1/4bga gfe4f2 z2ag  | \
w:  1. HANE  |   | 
f4 g2fg fed4e4g2  | 
w:   | 
f4 eded dcde fga4z2  | a4 _1/4b2a4=c'4b4a2  | \
w:   |  1. HANE  | 
g4 a_1/4bga gfe4f2 z2ag  | 
w:   | 
f4 g2fg fed4e4g2  | f4 eded dc(3ede dcd4z2  | 
w:   |   | 
A4 d2de dcdc BAc4BA  | d4 dcc3BcB AGA4z2  | 
w:  TESLİM  |   | 
A4 AGG3FF3ED4z2  | E4 F2GA GFGF FED4z2  | 
w:   |   | 
A4 B2A3GAG FGA4B2  | c4 BAd3ccB BAA4GF  | 
w:  2. HANE  |   | 
E4 F2FE F2GF G2A4B2  | c4 BAd3c(3ede dcd4z2  | 
w:   |   | 
A4 d2de dcdc BAc4BA  | d4 dcc3BcB AGA4z2  | 
w:  TESLİM  |   | 
A4 AGG3FF3ED4z2  | E4 F2GA GFGF FED4z2  | 
w:   |   | 
e4 d2ef edc2 d2e2 f2g2  | f4 g2f3eed dcd4z2  | 
w:  3. HANE  |   | 
A4 G2G3FF3EE4z2  | ABcd cBA3G(3ede dcd4z2  | 
w:   |   | 
A4 d2de dcdc BAc4BA  | d4 dcc3BcB AGA4z2  | 
w:  TESLİM  |   | 
A4 AGG3FF3ED4z2  | E4 F2GA GFGF FED4z2  | 
w:   |   | 
z24  | G4A2B2A2GAG2F2E4z4  | e4d2c2c2BcB2A2A4z4  | 
w:  |  4. HANE  |   | 
A2B2c2d2e2g2f2e2e3dd4  | d2a2g2f2f3eeddcd4d4  | 
w:   |   | 
z20  | A4 d2de dcdc BAc4BA  | d4 dcc3BcB AGA4z2  | 
w:  |  TESLİM  |   | 
A4 AGG3FF3ED4z2  | E4 F2GA GFGF FED4z2  | 
w:   |   | 
|


